X: 598
T: Dermot and His Lass.
T: diarmuid agus a .cailin.
R:air
N:"Slow."
B:O'Neill's 598
Z:Transcribed by John Walsh (walsh@math.ubc.ca)
M:3/8
L:1/16
%Q:50
K:Dm
D2|">"A,2">"D2 (DE)|">"D4 (EF)|G2 (FE) (D>E)|A,4 (c>B)|
A2G2 ((3A=Bc)|C2 C>D E>D|D4 D2|D4:|
A2|.A2.d2.d2|d4 (cd)|(e2>d2) (d>c)|c4 (c=B)|
A2G2 ((3A=Bc)|C2 C>D E>D|D4 D2|HD4:|


